SVG_Azure_Grouped/Dynamics 365/Application Commerce.svg

<?xml version="1.0" encoding="UTF-8" standalone="no"?>
<!-- Generated by Microsoft Visio, SVG Export Application Commerce.svg Page-1 -->

<svg
   xmlns:dc="http://purl.org/dc/elements/1.1/"
   xmlns:cc="http://creativecommons.org/ns#"
   xmlns:rdf="http://www.w3.org/1999/02/22-rdf-syntax-ns#"
   xmlns:svg="http://www.w3.org/2000/svg"
   xmlns="http://www.w3.org/2000/svg"
   xmlns:sodipodi="http://sodipodi.sourceforge.net/DTD/sodipodi-0.dtd"
   xmlns:inkscape="http://www.inkscape.org/namespaces/inkscape"
   width="0.78034949in"
   height="0.7087028in"
   viewBox="0 0 56.185162 51.02652"
   xml:space="preserve"
   class="st6"
   version="1.1"
   id="svg58"
   sodipodi:docname="Application Commerce.svg"
   style="font-size:12px;overflow:visible;color-interpolation-filters:sRGB;fill:none;fill-rule:evenodd;stroke-linecap:square;stroke-miterlimit:3"
   inkscape:version="0.92.5 (2060ec1f9f, 2020-04-08)"><metadata
   id="metadata62"><rdf:RDF><cc:Work
       rdf:about=""><dc:format>image/svg+xml</dc:format><dc:type
         rdf:resource="http://purl.org/dc/dcmitype/StillImage" /></cc:Work></rdf:RDF></metadata><sodipodi:namedview
   pagecolor="#ffffff"
   bordercolor="#666666"
   borderopacity="1"
   objecttolerance="10"
   gridtolerance="10"
   guidetolerance="10"
   inkscape:pageopacity="0"
   inkscape:pageshadow="2"
   inkscape:window-width="640"
   inkscape:window-height="480"
   id="namedview60"
   showgrid="false"
   inkscape:zoom="1.963572"
   inkscape:cx="37.470306"
   inkscape:cy="14.737934"
   inkscape:window-x="0"
   inkscape:window-y="0"
   inkscape:window-maximized="0"
   inkscape:current-layer="svg58" />
	<style
   type="text/css"
   id="style2">
	<![CDATA[
		.st1 {fill:url(#grad0-7);stroke:none;stroke-linecap:butt;stroke-width:0.75}
		.st2 {fill:url(#grad0-11);stroke:none;stroke-linecap:butt;stroke-width:0.75}
		.st3 {fill:#000000;fill-opacity:0.32;stroke:none;stroke-linecap:butt;stroke-width:0.75}
		.st4 {fill:#000000;fill-opacity:0.24;stroke:none;stroke-linecap:butt;stroke-width:0.75}
		.st5 {fill:url(#grad0-19);stroke:none;stroke-linecap:butt;stroke-width:0.75}
		.st6 {fill:none;fill-rule:evenodd;font-size:12px;overflow:visible;stroke-linecap:square;stroke-miterlimit:3}
	]]>
	</style>

	<defs
   id="Patterns_And_Gradients">
		<linearGradient
   id="grad0-7"
   x1="0"
   y1="115.62113"
   x2="33.329686"
   y2="115.62113"
   gradientTransform="scale(1.6524386,0.60516621)"
   gradientUnits="userSpaceOnUse">
			<stop
   offset="0"
   stop-color="#ffed80"
   stop-opacity="1"
   id="stop4" />
			<stop
   offset="1"
   stop-color="#ffdb00"
   stop-opacity="1"
   id="stop6" />
		</linearGradient>
		<linearGradient
   id="grad0-11"
   x1="0.15205374"
   y1="102.06827"
   x2="29.574907"
   y2="102.06827"
   gradientTransform="scale(1.4587433,0.68552156)"
   gradientUnits="userSpaceOnUse">
			<stop
   offset="0"
   stop-color="#ea8200"
   stop-opacity="1"
   id="stop9" />
			<stop
   offset="1"
   stop-color="#c46a08"
   stop-opacity="1"
   id="stop11" />
		</linearGradient>
		<linearGradient
   id="grad0-19"
   x1="0.32467821"
   y1="30.252624"
   x2="37.738842"
   y2="30.252624"
   gradientTransform="scale(0.75068547,1.3321158)"
   gradientUnits="userSpaceOnUse">
			<stop
   offset="0"
   stop-color="#fac240"
   stop-opacity="1"
   id="stop14" />
			<stop
   offset="0.2"
   stop-color="#f29800"
   stop-opacity="1"
   id="stop16" />
		</linearGradient>
	</defs>
	<g
   id="g56"
   transform="translate(-5.9130212,-5.0977695)">
		<title
   id="title20">Page-1</title>
		<g
   id="group21416-1"
   transform="translate(5.66929,-34.0157)">
			<title
   id="title22">Application Commerce.21416</title>
			<g
   id="group21417-2">
				<title
   id="title24">Sheet.21417</title>
				<g
   id="group21418-3">
					<title
   id="title26">Sheet.21418</title>
					<g
   id="shape21419-4"
   transform="translate(1.35363,-27.2917)">
						<title
   id="title28">Sheet.21419</title>
						<path
   d="m 55.02,72.85 c 0.32,-1.48 -0.79,-2.88 -2.29,-2.88 H 0 l 3.73,20.17 h 45.7 c 1.1,0 2.06,-0.78 2.29,-1.87 z"
   class="st1"
   id="path30"
   inkscape:connector-curvature="0"
   style="fill:url(#grad0-7);stroke:none;stroke-width:0.75;stroke-linecap:butt" />
					</g>
					<g
   id="shape21420-8"
   transform="translate(6.31604,-1.1866)">
						<title
   id="title33">Sheet.21420</title>
						<path
   d="M 43.09,72.83 C 43.4,71.36 42.29,69.97 40.8,69.97 H 2.57 c -1.47,0 -2.57,1.34 -2.31,2.8 l 2.76,15.42 c 0.2,1.13 1.17,1.95 2.31,1.95 h 32.25 c 1.11,0 2.07,-0.78 2.3,-1.88 z"
   class="st2"
   id="path35"
   inkscape:connector-curvature="0"
   style="fill:url(#grad0-11);stroke:none;stroke-width:0.75;stroke-linecap:butt" />
					</g>
					<g
   id="shape21421-12">
						<title
   id="title38">Sheet.21421</title>
						<path
   d="m 2.59,40.3 c -1.48,0 -2.59,1.38 -2.3,2.84 l 8.92,45.09 c 0.22,1.11 1.18,1.91 2.3,1.91 H 28.33 L 19.32,42.23 C 19.11,41.11 18.15,40.3 17.02,40.3 Z"
   class="st3"
   id="path40"
   inkscape:connector-curvature="0"
   style="fill:#000000;fill-opacity:0.31999996;stroke:none;stroke-width:0.75;stroke-linecap:butt" />
					</g>
					<g
   id="shape21422-14"
   transform="translate(0,-0.961143)">
						<title
   id="title43">Sheet.21422</title>
						<path
   d="m 2.59,40.3 c -1.48,0 -2.59,1.38 -2.3,2.84 l 8.92,45.09 c 0.22,1.11 1.18,1.91 2.3,1.91 H 28.33 L 19.32,42.23 C 19.11,41.11 18.15,40.3 17.02,40.3 Z"
   class="st4"
   id="path45"
   inkscape:connector-curvature="0"
   style="fill:#000000;fill-opacity:0.23999999;stroke:none;stroke-width:0.75;stroke-linecap:butt" />
					</g>
					<g
   id="shape21423-16"
   transform="translate(0,-1.1866)">
						<title
   id="title48">Sheet.21423</title>
						<path
   d="m 2.59,40.3 c -1.48,0 -2.59,1.38 -2.3,2.84 l 8.92,45.09 c 0.22,1.11 1.18,1.91 2.3,1.91 H 28.33 L 19.32,42.23 C 19.11,41.11 18.15,40.3 17.02,40.3 Z"
   class="st5"
   id="path50"
   inkscape:connector-curvature="0"
   style="fill:url(#grad0-19);stroke:none;stroke-width:0.75;stroke-linecap:butt" />
					</g>
				</g>
			</g>
		</g>
	</g>
</svg>

<?xml version="1.0" encoding="UTF-8" standalone="no"?>
<!DOCTYPE svg PUBLIC "-//W3C//DTD SVG 1.1//EN" "http://www.w3.org/Graphics/SVG/1.1/DTD/svg11.dtd">
<!-- Generated by Microsoft Visio, SVG Export Application Commerce.svg Page-1 -->
<svg xmlns="http://www.w3.org/2000/svg" xmlns:xlink="http://www.w3.org/1999/xlink" xmlns:ev="http://www.w3.org/2001/xml-events"
		width="0.944882in" height="1.25197in" viewBox="0 0 68.0315 90.1417" xml:space="preserve" color-interpolation-filters="sRGB"
		class="st6">
	<style type="text/css">
	<![CDATA[
		.st1 {fill:url(#grad0-7);stroke:none;stroke-linecap:butt;stroke-width:0.75}
		.st2 {fill:url(#grad0-11);stroke:none;stroke-linecap:butt;stroke-width:0.75}
		.st3 {fill:#000000;fill-opacity:0.32;stroke:none;stroke-linecap:butt;stroke-width:0.75}
		.st4 {fill:#000000;fill-opacity:0.24;stroke:none;stroke-linecap:butt;stroke-width:0.75}
		.st5 {fill:url(#grad0-19);stroke:none;stroke-linecap:butt;stroke-width:0.75}
		.st6 {fill:none;fill-rule:evenodd;font-size:12px;overflow:visible;stroke-linecap:square;stroke-miterlimit:3}
	]]>
	</style>

	<defs id="Patterns_And_Gradients">
		<linearGradient id="grad0-7" x1="0" y1="0" x2="1" y2="0" gradientTransform="rotate(96.853957468964 0.5 0.5)">
			<stop offset="0" stop-color="#ffed80" stop-opacity="1"/>
			<stop offset="1" stop-color="#ffdb00" stop-opacity="1"/>
		</linearGradient>
		<linearGradient id="grad0-11" x1="0" y1="0" x2="1" y2="0" gradientTransform="rotate(128.76944737424 0.5 0.5)">
			<stop offset="0" stop-color="#ea8200" stop-opacity="1"/>
			<stop offset="1" stop-color="#c46a08" stop-opacity="1"/>
		</linearGradient>
		<linearGradient id="grad0-19" x1="0" y1="0" x2="1" y2="0" gradientTransform="rotate(52.76862301893 0.5 0.5)">
			<stop offset="0" stop-color="#fac240" stop-opacity="1"/>
			<stop offset="0.2" stop-color="#f29800" stop-opacity="1"/>
		</linearGradient>
	</defs>
	<g>
		<title>Page-1</title>
		<g id="group20941-1" transform="translate(5.66929,-34.0157)">
			<title>Application Commerce.20941</title>
			<g id="group20942-2">
				<title>Sheet.20942</title>
				<g id="group20943-3">
					<title>Sheet.20943</title>
					<g id="shape20944-4" transform="translate(1.35363,-27.2917)">
						<title>Sheet.20944</title>
						<path d="M55.02 72.85 C55.34 71.37 54.23 69.97 52.73 69.97 L0 69.97 L3.73 90.14 L49.43 90.14 C50.53 90.14
									 51.49 89.36 51.72 88.27 L55.02 72.85 Z" class="st1"/>
					</g>
					<g id="shape20945-8" transform="translate(6.31604,-1.1866)">
						<title>Sheet.20945</title>
						<path d="M43.09 72.83 C43.4 71.36 42.29 69.97 40.8 69.97 L2.57 69.97 C1.1 69.97 0 71.31 0.26 72.77 L3.02
									 88.19 C3.22 89.32 4.19 90.14 5.33 90.14 L37.58 90.14 C38.69 90.14 39.65 89.36 39.88 88.26 L43.09
									 72.83 Z" class="st2"/>
					</g>
					<g id="shape20946-12">
						<title>Sheet.20946</title>
						<path d="M2.59 40.3 C1.11 40.3 0 41.68 0.29 43.14 L9.21 88.23 C9.43 89.34 10.39 90.14 11.51 90.14 L28.33
									 90.14 L19.32 42.23 C19.11 41.11 18.15 40.3 17.02 40.3 L2.59 40.3 Z" class="st3"/>
					</g>
					<g id="shape20947-14" transform="translate(2.89768E-13,-0.961143)">
						<title>Sheet.20947</title>
						<path d="M2.59 40.3 C1.11 40.3 0 41.68 0.29 43.14 L9.21 88.23 C9.43 89.34 10.39 90.14 11.51 90.14 L28.33
									 90.14 L19.32 42.23 C19.11 41.11 18.15 40.3 17.02 40.3 L2.59 40.3 Z" class="st4"/>
					</g>
					<g id="shape20948-16" transform="translate(2.89768E-13,-1.1866)">
						<title>Sheet.20948</title>
						<path d="M2.59 40.3 C1.11 40.3 0 41.68 0.29 43.14 L9.21 88.23 C9.43 89.34 10.39 90.14 11.51 90.14 L28.33
									 90.14 L19.32 42.23 C19.11 41.11 18.15 40.3 17.02 40.3 L2.59 40.3 Z" class="st5"/>
					</g>
				</g>
			</g>
		</g>
	</g>
</svg>
